src/16/actions/object-to-path.svg

<svg xmlns="http://www.w3.org/2000/svg" width="16" height="16" viewBox="0 0 16 16">
 <defs>
  <style id="current-color-scheme" type="text/css">
   .ColorScheme-Text { color:#565656; } .ColorScheme-Highlight { color:#5294e2; }
  </style>
 </defs>
 <path style="fill:currentColor" class="ColorScheme-Text" d="M 4.9042969 -0.03125 L 4.9042969 0.06640625 C 3.5522969 -0.07521375 2.4357062 0.24970875 1.6289062 0.88671875 C 0.81323625 1.5308188 0.32384062 2.4640313 0.11914062 3.4570312 C -0.17463937 4.8828312 0.097336875 6.4666281 0.90429688 7.6738281 L 0.90429688 10.96875 L 4.9042969 10.96875 L 4.9042969 9.8066406 C 5.5645969 9.8946406 6.2473656 9.9471738 6.9472656 9.9648438 C 6.9432656 10.180054 6.9299875 10.409191 6.9296875 10.619141 C 6.9276875 12.014841 7.006785 13.275269 7.484375 14.230469 C 8.379525 16.020769 10.184897 16.316594 11.904297 15.808594 L 11.904297 15.96875 L 15.904297 15.96875 L 15.904297 12.195312 C 16.088867 11.479942 16.007648 10.740934 15.548828 10.052734 C 15.065698 9.3280444 14.154122 9.1312763 13.107422 9.0351562 C 12.060822 8.9390662 10.809159 8.9794925 9.5058594 9.0078125 C 8.9892994 9.0190325 8.4946094 8.9736431 7.9746094 8.9707031 C 8.0066094 8.0713231 8.040175 7.1874437 8.046875 6.2773438 C 8.052875 5.4763437 8.0260731 4.69995 7.9394531 3.96875 L 8.9042969 3.96875 L 8.9042969 -0.03125 L 4.9042969 -0.03125 z M 4.0253906 1.0351562 C 4.2755806 1.0209462 4.5455775 1.0280569 4.8359375 1.0605469 C 4.8619375 1.0634469 4.8788969 1.074625 4.9042969 1.078125 L 4.9042969 3.96875 L 6.9257812 3.96875 C 7.0165812 4.66639 7.052905 5.4446313 7.046875 6.2695312 C 7.040875 7.1464713 7.0066094 8.0462656 6.9746094 8.9472656 C 6.2484194 8.9200656 5.5532969 8.8646644 4.9042969 8.7714844 L 4.9042969 6.96875 L 1.6601562 6.96875 C 1.0912363 6.01205 0.87003625 4.7628031 1.0976562 3.6582031 C 1.2637262 2.8522731 1.6480969 2.145575 2.2480469 1.671875 C 2.6979969 1.316595 3.2748906 1.0777762 4.0253906 1.0351562 z M 11.40625 9.9746094 C 11.99641 9.9736434 12.542125 9.98779 13.015625 10.03125 C 13.962515 10.11818 14.552297 10.360772 14.716797 10.607422 C 14.991167 11.018982 15.015273 11.4903 14.876953 11.96875 L 11.904297 11.96875 L 11.904297 14.771484 C 10.539097 15.291854 9.0832063 15.191813 8.3789062 13.783203 C 8.0502762 13.125943 7.9280375 11.966494 7.9296875 10.621094 C 7.9299275 10.422664 7.9431656 10.186169 7.9472656 9.9804688 C 8.4793956 9.9775687 9.0089437 10.017119 9.5273438 10.005859 C 10.181524 9.9916494 10.81605 9.9755794 11.40625 9.9746094 z"/>
</svg>

<svg xmlns="http://www.w3.org/2000/svg" width="16" height="16"><defs><style id="current-color-scheme" type="text/css"></style></defs><path d="M4.904-.031v.097C3.552-.075 2.436.25 1.63.886.813 1.532.324 2.465.119 3.458c-.294 1.426-.022 3.01.785 4.217v3.295h4V9.807c.66.088 1.343.14 2.043.158-.004.215-.017.444-.017.654-.002 1.396.077 2.656.554 3.611.896 1.79 2.7 2.087 4.42 1.579v.16h4v-3.774c.185-.715.104-1.454-.355-2.142-.483-.725-1.395-.922-2.442-1.018-1.046-.096-2.298-.056-3.601-.027-.517.011-1.011-.034-1.531-.037.032-.9.065-1.784.072-2.694a18.6 18.6 0 0 0-.108-2.308h.965v-4h-4zm-.879 1.066c.25-.014.52-.007.81.026.027.002.044.014.07.017v2.89h2.02c.092.698.128 1.477.122 2.302-.006.876-.04 1.776-.072 2.677a19.911 19.911 0 0 1-2.07-.176V6.97H1.66c-.569-.957-.79-2.206-.562-3.31.166-.807.55-1.513 1.15-1.987.45-.355 1.027-.594 1.777-.637zm7.381 8.94a17.78 17.78 0 0 1 1.61.056c.947.087 1.536.33 1.7.576.275.412.3.883.161 1.362h-2.973v2.802c-1.365.52-2.82.42-3.525-.988-.329-.657-.451-1.817-.45-3.162 0-.198.014-.435.018-.64.532-.003 1.062.036 1.58.025.655-.014 1.29-.03 1.88-.031z" fill="currentColor" color="#565656"/></svg>
